X:199
T:Daidem
C:Sam Bush
N:Frpm the CD "Late as Usual" TablEdited by Mike Stangeland
L:1/8
Q:1/4=204
M:4/4
K:Bb
z6 DG |: "Gm "(3ABA GD AB G2 | z2 (3FGF DB, G,A, | B,C DF "Bb"=EC DC | "Cm"B,A, G,B, "Dm"CD DG | 
"Gm "(3ABA GD AB G2 | z2 (3FGF DB, G,A, | B,C DF "Bb"=EC DC |1 (3B,C"Dm"B, (3A,B,A, "Gm "G,2 DG :|2 (3B,C"Dm"B, (3A,B,A, "Gm "G,2 Bc | 
|: "Gm "dc BA "Bb"GB ed | "Cm"cB Ac "Dm"cd dc | "Gm "BA GB AG (3FG_A | "Dm"AG F=E D2 Bc | 
"Gm "dc BA "Bb"GB ed | "Cm"cB Ac "Dm"dg dc | "Gm "BA GB "Dm"AG FD |1 F"Gm "G GA G2 Bc :|2 F"Gm "G GG G2 (3c_d=d | 
|: "Gm "dc BA "Ab"GB e_d | cB _Ac "D7"=AG _GA | "Gm "dc BA "Ab"GB e_d | cB _A"D7"c =AD z2 | 
"Gm "dc BA "Ab"GB e_d | cB _Ac "D7"=AG _GA | "Gm "d_d cB GF D_D |1 CB, "Gm "G,4 (3c_d=d :|2 CB, "Gm "G,2 _A,2 =A,2 | 
(3[bdFB,][bdFB,][bdFB,] (3[bdFB,][bdFB,][bdFB,] (3[c'eGC][c'eGC][c'eGC] (3[c'eGC][c'eGC][c'eGC] | 
(3[d'fAD][d'fAD][d'fAD] (3[d'fAD][d'fAD][d'fAD] (3[f'acF][f'acF][f'acF] (3[f'acF][f'acF][f'acF] | 
(3[g'bDG,][g'bDG,][g'bDG,] (3[g'bDG,][g'bDG,][g'bDG,] (3[g'bDG,][g'bDG,][g'bDG,] (3[g'bDG,][g'bDG,][g'bDG,] | 
[g'8b8D8G,8] | z8 | 
 

